X:1
T: Paudy Scully's Jig
T: Dan Patsy's Jig
T: the Turnip Jig
S: Robert Eckert <eckert:DATACENTRUM.SK> irtrad-l 2000-03-09
B: Breathnach CRE v.2 #86
R:jig
M:6/8
K:G
Bc|d2B BAB|g2e f2e|d2B {d}BAB|e3 efg|\
d2B {d}BAB|g2e f2e|d2B {d}cAF|1 G3 G:|2 G3 G||Gg|\
f2a e2g|f2a e2f|d2B {d}BAB|e3 e2g|\
f2a e2g|fga e2f|d2B {d}cAF|G3 G:|
